X:110
T: Butcher's March (B)
T: M\'airse\'ail na mB\'uist\'eir\'i
S: B.Breathnach: "Ceol Rince na hEireann" II/27(i)
Z: B.Black
L: 1/8
M: 6/8
R: jig
K: G
f|eAA eAA|edB Agf|eAA eAA|edB G2f|
eAA eAA|edB A2f|gaa baf|edB G2 :|
a|BBB BAB|edB A2A|BBB BAB|edB G2A|
BBB BAB|edB A2f|gaa baf|edB G2 :|

